assets/svgs/misc-grey/MiscGrey73.svg

<svg width="35" height="40" viewBox="0 0 35 40" fill="none" xmlns="http://www.w3.org/2000/svg">
<path fill-rule="evenodd" clip-rule="evenodd" d="M17.29 3.81C20.564 3.81 23.228 6.48 23.228 9.75C23.228 13.03 20.564 15.69 17.29 15.69C14.016 15.69 11.353 13.03 11.353 9.75C11.353 6.48 14.016 3.81 17.29 3.81ZM17.29 18.69C22.218 18.69 26.228 14.68 26.228 9.75C26.228 4.82 22.218 0.809998 17.29 0.809998C12.362 0.809998 8.35305 4.82 8.35305 9.75C8.35305 14.68 12.362 18.69 17.29 18.69ZM31.457 36.38H3.12305V29.42C3.12305 27.66 3.81205 25.94 4.96605 24.81C5.55605 24.23 6.52805 23.53 7.91505 23.57C8.68005 23.59 11.05 23.56 13.932 23.55C18.238 23.53 23.669 23.5 26.479 23.5C29.899 23.5 31.457 26.29 31.457 28.88V36.38ZM26.479 20.5C23.666 20.5 18.229 20.53 13.918 20.55C11.057 20.56 8.69405 20.57 7.95605 20.57C7.95305 20.57 7.94905 20.57 7.94505 20.57C6.08705 20.54 4.27905 21.28 2.86505 22.67C1.14805 24.35 0.123047 26.87 0.123047 29.42V37.88C0.123047 38.7 0.794047 39.38 1.62305 39.38H32.957C33.785 39.38 34.457 38.7 34.457 37.88V28.88C34.457 24.82 31.661 20.5 26.479 20.5Z" fill="#1A1919"/>
</svg>

<svg xmlns="http://www.w3.org/2000/svg" fill="none" viewBox="0 0 35 40"><path fill="#1A1919" fill-rule="evenodd" d="M17.29 3.81c3.274 0 5.938 2.67 5.938 5.94 0 3.28-2.664 5.94-5.938 5.94a5.942 5.942 0 01-5.937-5.94c0-3.27 2.663-5.94 5.937-5.94zm0 14.88c4.928 0 8.938-4.01 8.938-8.94S22.218.81 17.29.81c-4.928 0-8.937 4.01-8.937 8.94s4.009 8.94 8.937 8.94zm14.167 17.69H3.123v-6.96c0-1.76.689-3.48 1.843-4.61.59-.58 1.562-1.28 2.949-1.24.765.02 3.135-.01 6.017-.02 4.306-.02 9.737-.05 12.547-.05 3.42 0 4.978 2.79 4.978 5.38v7.5zM26.479 20.5c-2.813 0-8.25.03-12.561.05-2.861.01-5.224.02-5.962.02h-.011c-1.858-.03-3.666.71-5.08 2.1-1.717 1.68-2.742 4.2-2.742 6.75v8.46c0 .82.671 1.5 1.5 1.5h31.334c.828 0 1.5-.68 1.5-1.5v-9c0-4.06-2.796-8.38-7.978-8.38z" clip-rule="evenodd"/></svg>
